X:1
T:[ID 11-27a]
T:[ID 11-27a]
T:Bezeichnung standardisiert: Anglaise No. 1 Angelese
T:Urheber unbekannt Datum in der hier transkribierten schriftlichen Quelle: vermutlich um 1800
C:Urheber unbekannt
C:Datum in der hier transkribierten schriftlichen Quelle: vermutlich um 1800
L:1/8
M:3/8
K:Bb
V:1 treble 
V:1
 B | eE/D/E/D/ | EE/D/E/D/ | EG/E/G/E/ | C2 A/F/ | DB/A/G/F/ | Ee/d/c/B/ | AA/F/F/D/ | E2 :: G | %10
 BD/F/B/d/ | fF/B/d/f/ | ee/c/f/e/ | dBB | ee/d/e/d/ | e/d/c/B/A/G/ | FAD | E2 :: B | cgg | %20
 aa/g/f/e/ | edd | df/e/d/c/ | cBB | Bcd | dee | e2 :| %27

